src/images_karasa_jaga_svg/cmd/32/fontworkshapetype.fontwork-chevron-up.svg

<svg height="32" viewBox="0 0 32 32" width="32" xmlns="http://www.w3.org/2000/svg" xmlns:xlink="http://www.w3.org/1999/xlink"><linearGradient id="a" gradientUnits="userSpaceOnUse" x1="64" x2="64" y1="124" y2="4"><stop offset="0" stop-color="#fff"/><stop offset=".46428573" stop-color="#fff"/><stop offset=".78125" stop-color="#f1f1f1"/><stop offset=".90625" stop-color="#eaeaea"/><stop offset="1" stop-color="#dfdfdf"/></linearGradient><linearGradient id="b" gradientUnits="userSpaceOnUse" x1="64" x2="64" y1="124" y2="4"><stop offset="0" stop-color="#7c9fcf"/><stop offset=".5" stop-color="#7c9ece"/><stop offset="1" stop-color="#7b9dcf"/></linearGradient><g transform="scale(.25)"><path d="m64.177734 18.535156a3.9991241 3.9991241 0 0 0 -1.898437.384766l-56.0000001 26.683594a3.9991241 3.9991241 0 0 0 -2.2773438 3.609375v66.257809a3.9991241 3.9991241 0 0 0 5.71875 3.60938l54.2792969-25.863283 54.2793 25.863283a3.9991241 3.9991241 0 0 0 5.71875-3.60938v-66.257809a3.9991241 3.9991241 0 0 0 -2.27735-3.609375l-55.999997-26.683594a3.9991241 3.9991241 0 0 0 -1.542969-.384766z" fill="url(#b)"/><path d="m120 49.212478-55.999995-26.682871-55.9999955 26.682871v66.257922l55.9999955-26.682871 55.999995 26.682861z" fill="url(#a)"/></g></svg>

<?xml version="1.0" encoding="UTF-8" standalone="no"?>
<!-- Created with Inkscape (http://www.inkscape.org/) -->

<svg
   xmlns:dc="http://purl.org/dc/elements/1.1/"
   xmlns:cc="http://creativecommons.org/ns#"
   xmlns:rdf="http://www.w3.org/1999/02/22-rdf-syntax-ns#"
   xmlns:svg="http://www.w3.org/2000/svg"
   xmlns="http://www.w3.org/2000/svg"
   xmlns:xlink="http://www.w3.org/1999/xlink"
   xmlns:sodipodi="http://sodipodi.sourceforge.net/DTD/sodipodi-0.dtd"
   xmlns:inkscape="http://www.inkscape.org/namespaces/inkscape"
   version="1.1"
   id="svg2"
   width="128"
   height="128"
   viewBox="0 0 128 128"
   sodipodi:docname="fontworkshapetype.fontwork-chevron-up.svg"
   inkscape:export-filename="/home/rizmut/Dokumen/Rizmut/Github/libreoffice-style-karasa-jaga/build/images_karasa_jaga/cmd/32/fontworkshapetype.fontwork-chevron-up.png"
   inkscape:export-xdpi="24"
   inkscape:export-ydpi="24"
   inkscape:version="0.92.3 (unknown)">
  <metadata
     id="metadata8">
    <rdf:RDF>
      <cc:Work
         rdf:about="">
        <dc:format>image/svg+xml</dc:format>
        <dc:type
           rdf:resource="http://purl.org/dc/dcmitype/StillImage" />
        <dc:title></dc:title>
      </cc:Work>
    </rdf:RDF>
  </metadata>
  <defs
     id="defs6">
    <linearGradient
       id="linearGradient7422">
      <stop
         style="stop-color:#7c9fcf;stop-opacity:1"
         offset="0"
         id="stop7424" />
      <stop
         id="stop5348"
         offset="0.5"
         style="stop-color:#7c9ece;stop-opacity:1" />
      <stop
         id="stop7426"
         offset="1"
         style="stop-color:#7b9dcf;stop-opacity:1" />
    </linearGradient>
    <linearGradient
       id="linearGradient3369">
      <stop
         id="stop3372"
         offset="0"
         style="stop-color:#ffffff;stop-opacity:1;" />
      <stop
         style="stop-color:#ffffff;stop-opacity:1;"
         offset="0.46428573"
         id="stop3374" />
      <stop
         style="stop-color:#f1f1f1;stop-opacity:1;"
         offset="0.78125"
         id="stop3376" />
      <stop
         id="stop3378"
         offset="0.90625"
         style="stop-color:#eaeaea;stop-opacity:1;" />
      <stop
         id="stop3384"
         offset="1"
         style="stop-color:#dfdfdf;stop-opacity:1;" />
    </linearGradient>
    <linearGradient
       inkscape:collect="always"
       xlink:href="#linearGradient3369"
       id="linearGradient1387"
       x1="64"
       y1="124"
       x2="64"
       y2="4"
       gradientUnits="userSpaceOnUse" />
    <linearGradient
       inkscape:collect="always"
       xlink:href="#linearGradient7422"
       id="linearGradient1391"
       gradientUnits="userSpaceOnUse"
       x1="64"
       y1="124"
       x2="64"
       y2="4" />
  </defs>
  <sodipodi:namedview
     pagecolor="#ffffff"
     bordercolor="#666666"
     borderopacity="1"
     objecttolerance="10"
     gridtolerance="10"
     guidetolerance="10"
     inkscape:pageopacity="0"
     inkscape:pageshadow="2"
     inkscape:window-width="1366"
     inkscape:window-height="706"
     id="namedview4"
     showgrid="true"
     inkscape:snap-page="true"
     inkscape:snap-global="false"
     inkscape:zoom="4.8988576"
     inkscape:cx="70.197781"
     inkscape:cy="90.900886"
     inkscape:window-x="0"
     inkscape:window-y="0"
     inkscape:window-maximized="1"
     inkscape:current-layer="svg2">
    <inkscape:grid
       type="xygrid"
       id="grid814"
       spacingx="4"
       spacingy="4"
       empspacing="2" />
  </sodipodi:namedview>
  <g
     id="g1416">
    <path
       d="m 64.177734,18.535156 a 3.9991241,3.9991241 0 0 0 -1.898437,0.384766 L 6.2792969,45.603516 A 3.9991241,3.9991241 0 0 0 4.0019531,49.212891 V 115.4707 a 3.9991241,3.9991241 0 0 0 5.71875,3.60938 L 64,93.216797 118.2793,119.08008 a 3.9991241,3.9991241 0 0 0 5.71875,-3.60938 V 49.212891 A 3.9991241,3.9991241 0 0 0 121.7207,45.603516 L 65.720703,18.919922 a 3.9991241,3.9991241 0 0 0 -1.542969,-0.384766 z"
       id="path1389"
       style="opacity:1;fill:url(#linearGradient1391);fill-opacity:1;stroke:none;stroke-width:4.27948284;stroke-linecap:round;stroke-linejoin:bevel;stroke-miterlimit:4;stroke-dasharray:none;stroke-dashoffset:0;stroke-opacity:0.73039216"
       inkscape:original="M 64 22.529297 L 8 49.212891 L 8 115.4707 L 64 88.787109 L 120 115.4707 L 120 49.212891 L 64 22.529297 z "
       inkscape:radius="3.9987242"
       sodipodi:type="inkscape:offset" />
    <path
       style="opacity:1;fill:url(#linearGradient1387);fill-opacity:1;stroke:none;stroke-width:4.27948284;stroke-linecap:round;stroke-linejoin:bevel;stroke-miterlimit:4;stroke-dasharray:none;stroke-dashoffset:0;stroke-opacity:0.73039216"
       d="M 120,49.212478 64.000005,22.529607 8.0000095,49.212478 V 115.4704 L 64.000005,88.787529 120,115.47039 Z"
       id="rect3937-9"
       inkscape:connector-curvature="0"
       sodipodi:nodetypes="ccccccc" />
  </g>
</svg>
